public/images/icon_linkedin.svg

<svg fill="none" height="24" viewBox="0 0 24 24" width="24" xmlns="http://www.w3.org/2000/svg"><path d="m7.20005 9.59999v8.00001m9.59995 0v-4c0-1.7673-1.4326-3.2-3.2-3.2-1.7673 0-3.2 1.4327-3.2 3.2v4-8.00001m-3.99995-2.4h1.6m-5.6-6.400002h19.19995c.8837 0 1.6.716342 1.6 1.600002v19.20001c0 .8836-.7163 1.6-1.6 1.6h-19.19995c-.88366 0-1.600001-.7164-1.600001-1.6v-19.20001c0-.88366.716341-1.600002 1.600001-1.600002z" stroke="#ddd"/></svg>

<svg width="24" height="24" viewBox="0 0 24 24" fill="none" xmlns="http://www.w3.org/2000/svg">
<path d="M7.20005 9.59999V17.6M16.8 17.6V13.6C16.8 11.8327 15.3674 10.4 13.6 10.4C11.8327 10.4 10.4 11.8327 10.4 13.6V17.6V9.59999M6.40005 7.19999H8.00005M2.40005 0.799988H21.6C22.4837 0.799988 23.2 1.51633 23.2 2.39999V21.6C23.2 22.4836 22.4837 23.2 21.6 23.2H2.40005C1.51639 23.2 0.800049 22.4836 0.800049 21.6V2.39999C0.800049 1.51633 1.51639 0.799988 2.40005 0.799988Z" stroke="#DDDDDD"/>
</svg>
